!!!COM: Bach, Johann Sebastian
!!!OPR: Joh. Seb. Bachs vierstimmige Choralgesänge
!!!XEN: Four-part Chorales
!!!OTL: Chorale 122. Lobt Gott, ihr Christen allzugleich
!!!SCT: BWV 375
!!!SCA: Thematisch-systematisches Verzeichnis der musikalischen Werke Johann Sebastian Bach: Bach-Werke-Verzeichnis (Schmieder)
!!!YOR: Bach Gesellschaft Edition xxxix
!!!ENC: Steven Rasmussen
!!!CDT: 1685/3//-1750/7/28/
!!!OCY: Deutschland
!!!YEC: Copyright (c) 1994, 2000 Center for Computer Assisted Research in the Humanities
!!!YEM: Rights to all derivative editions reserved
!!!YEN: United States of America
**kern	**kern	**kern	**kern	**silbe
*I"[BASSO]	*I"[TENORE]	*I"[ALTO]	*I"[SOPRANO]	*I"[SOPRANO]
*clefF4	*clefGv2	*clefG2	*clefG2	*
*k[f#]	*k[f#]	*k[f#]	*k[f#]	*
*G:	*G:	*G:	*G:	*
*M4/4	*M4/4	*M4/4	*M4/4	*
4G	4B	4d	4g	Lobt
=1	=1	=1	=1	=1
4F#	4A	8dL	4dd	Gott,
.	.	8eJ	.	.
4D	16ALL	4f#	4dd	ihr
.	16BJ	.	.	.
.	8cJ	.	.	.
8GL	8BL	4g	4dd	Chri-
8AJ	8AJ	.	.	.
8BL	4G	8gL	4dd	-sten
8GJ	.	8fnJ	.	.
=2	=2	=2	=2	=2
4c	4G	8eL	4ee	all-
.	.	8gJ	.	.
4d	4d	4f#	8ddL	-zu-
.	.	.	8ccJ	.
4G;	4d;	4g;	4b;	-gleich,
4F#	4d	4a	4a	in
=3	=3	=3	=3	=3
4E	4G	4g	8bL	sei-
.	.	.	8cc#J	.
8BL	8dL	4f#	4dd	-nem
8AJ	8c#J	.	.	.
4G	8BL	4e	4dd	höch-
.	8eJ	.	.	.
4A	8aL	4e	4cc#	-sten
.	8gJ	.	.	.
=4	=4	=4	=4	=4
2.D;	2.f#;	2.d;	2.dd;	Thron;
4D	8dL	4f#	4dd	der
.	8cJ	.	.	.
=5	=5	=5	=5	=5
8GL	8BL	4g	4dd	heut'
8AJ	8cJ	.	.	.
8BL	8dL	4f#	4dd	auf-
8AJ	8cJ	.	.	.
4.G	8BL	8gL	8ddL	-schleusst
.	8cJ	8aJ	8ccJ	.
.	4d	8bL	8bL	sein
8A	.	8aJ	8ccJ	.
=6	=6	=6	=6	=6
4B	4d	4g	8ddL	Him-
.	.	.	8ccJ	.
4c	4e	8gL	4b	-mel-
.	.	16f#L	.	.
.	.	16eJJ	.	.
4d;	4A;	4f#;	4a;	-reich
4B	8BL	4f#	4dd	und
.	8AJ	.	.	.
=7	=7	=7	=7	=7
4E	8GL	4g	4cc	schenkt
.	8AJ	.	.	.
8EL	8BL	8gL	4b	uns
8DJ	8dJ	8f#J	.	.
8CL	4e	4e	4a	sei-
8AAJ	.	.	.	.
8DL	4d	4f#	4a	-nen
8cJ	.	.	.	.
=8	=8	=8	=8	=8
4B	4d	4g	8gL	Sohn,
.	.	.	8a	.
4A	4c	4f#	8b	.
.	.	.	8ccJ	.
4G#;	4B;	4fn;	4dd;	.
4GG#	4B	4e	4dd	und
=9	=9	=9	=9	=9
4AA	8cL	8eL	4cc	schenkt
.	8dJ	8f#J	.	.
8EL	4e	8gL	4b	uns
8DJ	.	8f#J	.	.
8CL	8eL	4e	4a	sei-
8AAJ	8cJ	.	.	.
4D	8AL	4f#	4a	-nen
.	16BL	.	.	.
.	16cJJ	.	.	.
=10	=10	=10	=10	=10
2.GG;	2.B;	2.d;	2.g;	Sohn.
==|!	==|!	==|!	==|!	==|!
*-	*-	*-	*-	*-
!!!RWG: Key is interpreted using the Humdrum key tool.
!!!URL-pdf: https://s9.imslp.org/files/imglnks/usimg/6/6b/IMSLP24489-PMLP09471-CCARH_Bach_Chorales.pdf#page=87 Musedata edition
!!!URL-pdf: https://s9.imslp.org/files/imglnks/usimg/7/7a/IMSLP04155-Bach_-_BGA_253-438.pdf#page=67 	Bach-Gesellschaft Ausgabe, Band 39 (pp.175-276) Leipzig: Breitkopf und Härtel, 1892. Plate B.W. XXXIX.
!!!END: 1994/07/18
!!!EMD: Converted from MuseData to Humdrum Dec 19, 2000, by Andreas Kornstaedt using muse2kern.
!!!EED: Craig Stuart Sapp
!!!EEV: 2024/03/31
!!!filter-keyboard: extract -i kern | satb2gs
!!!title: @{OTL} (@{SCT})
